X:76
T:Hungary Waltz,now as I got it. JGi.076
O:Tealby,Lincolnshire
M:3/8
L:1/4
Q:3/8=60
S:Joshua Gibbons MS,1823,Tealby,Lincs.
R:waltz
Z:VMP/R.Greig, 2009
K:G
B/d/|gfA/c/|edG/B/|dcA/c/|edB/d/|gfB/c/|ed G/B/|dcA/F/|G2:|
|:B/d/|c/d/>c/ Ac|edB/d/|c/4d/4c/Ac|edB/d/2|gfA/c/|edG/B/|dcA/F/|G2:|
|:d|dba|gBd|cAf|gBd|dba|gBdcAf|g2:|
|:BcAf|gBd|cAf|gBd|cba|gcd|cAf|g2|]

